icons/image-collection-explorer-16.svg

<?xml version="1.0" encoding="UTF-8"?><svg id="icons" xmlns="http://www.w3.org/2000/svg" viewBox="0 0 16 16"><path d="m5,4h-1v-2h2v1h-1v1Zm10,1h-2v2h2v-2Z" style="fill:#6f6f6f; opacity:.25;"/><path d="m10,3v-1h2v1h-2Zm-1,3v-1h-2v1h2Zm1,2v2h2v-2h-2Z" style="fill:#6f6f6f; opacity:.5;"/><path d="m13,1v2h-1v-1h-2v1h-1v-1h-2v1h-1v-1h-2v2h1v1h-1v1h-1V1h10Zm3,3v7h-7.67212c1.3992-1.31126,1.62433-1.39459,1.6593-1.93634.00146-.02222.01282-.08483.01282-.10741v1.04475h2v-2.001h-2v-1h2v-2h-2v2c0-.55225-.44727-1-1-1v-1h-2v1h-1v-2h10Zm-1,4h-2v2.001h2v-2.001Zm0-3h-2v2h2v-2Zm-6,2v2l-3.2016,3-.13525,4h-1.32629l-.13525-4-3.2016-3v-2h8Zm-2.24402,3h-3.55438l1.04999,1h1.49683l1.00757-1Zm1.24402-2H2v1h6v-1Z"/><rect width="16" height="16" style="fill:none;"/></svg>

<svg xmlns="http://www.w3.org/2000/svg" viewBox="0 0 16 16"><path d="M5 4H4V2h2v1H5v1zm10 1h-2v2h2V5z" fill="#6f6f6f" opacity=".25"/><path d="M10 3V2h2v1h-2zM9 6V5H7v1h2zm1 2v2h2V8h-2z" fill="#6f6f6f" opacity=".5"/><path d="M13 1v2h-1V2h-2v1H9V2H7v1H6V2H4v2h1v1H4v1H3V1h10zm3 3v7H8.328c1.4-1.311 1.624-1.395 1.66-1.936 0-.023.012-.085.012-.108v1.045h2V8h-2V7h2V5h-2v2a1 1 0 0 0-1-1V5H7v1H6V4h10zm-1 4h-2v2.001h2V8zm0-3h-2v2h2V5zM9 7v2l-3.202 3-.135 4H4.337l-.135-4L1 9V7h8zm-2.244 3H3.202l1.05 1h1.496l1.008-1zM8 8H2v1h6V8z"/><path fill="none" d="M0 0h16v16H0z"/></svg>
